public/icons/icon/size-extra-large.svg

<svg width="31" height="30" viewBox="0 0 31 30" fill="none" xmlns="http://www.w3.org/2000/svg">
<path d="M4.4209 5.7915L8.05078 11.9263H8.19141L11.8389 5.7915H16.1367L10.6436 14.7915L16.2598 23.7915H11.8828L8.19141 17.6479H8.05078L4.35938 23.7915H0L5.63379 14.7915L0.105469 5.7915H4.4209Z" fill="black"/>
<path d="M18.5449 23.7915V5.7915H22.3506V20.6538H30.0674V23.7915H18.5449Z" fill="black"/>
</svg>

<svg xmlns="http://www.w3.org/2000/svg" width="31" height="30" fill="none"><path fill="#000" d="m4.42 5.792 3.63 6.134h.141l3.648-6.135h4.298l-5.493 9 5.616 9h-4.377L8.19 17.648h-.14L4.359 23.79H0l5.634-9-5.529-9h4.316ZM18.545 23.791v-18h3.806v14.863h7.716v3.137H18.545Z"/></svg>
